img/img_ssam_activity3.svg

<svg width="240" height="240" viewBox="0 0 240 240" fill="none" xmlns="http://www.w3.org/2000/svg">
<path d="M230 0H10C4.47715 0 0 4.47715 0 10V230C0 235.523 4.47715 240 10 240H230C235.523 240 240 235.523 240 230V10C240 4.47715 235.523 0 230 0Z" fill="#C3D4F8"/>
<path d="M216.3 240H23.7L53.4 121.21C53.7192 119.928 54.4529 118.786 55.4872 117.964C56.5215 117.141 57.7985 116.683 59.1199 116.66L196.12 114.37L216.3 240Z" fill="#7391ED"/>
<path d="M161.1 165.56H60.1C59.6495 165.559 59.2049 165.457 58.7992 165.261C58.3935 165.065 58.0372 164.78 57.7567 164.428C57.4761 164.075 57.2786 163.664 57.1788 163.225C57.079 162.785 57.0794 162.329 57.18 161.89L64.88 128.28C65.0404 127.631 65.4128 127.055 65.9382 126.642C66.4635 126.229 67.1117 126.003 67.78 126L158.78 124L164.07 162.22C164.118 162.639 164.077 163.063 163.949 163.466C163.822 163.868 163.611 164.238 163.331 164.554C163.051 164.869 162.707 165.121 162.323 165.295C161.938 165.468 161.522 165.558 161.1 165.56Z" fill="#FFF0B0"/>
<path d="M169.81 227.23L45.41 226.12C44.9611 226.116 44.5188 226.012 44.1156 225.815C43.7125 225.617 43.3587 225.332 43.0804 224.98C42.8021 224.628 42.6064 224.218 42.5077 223.78C42.4089 223.342 42.4097 222.887 42.51 222.45L51.56 183L162 179.05C162.71 179.038 163.402 179.279 163.951 179.73C164.501 180.18 164.872 180.811 165 181.51L172.78 223.68C172.861 224.115 172.845 224.562 172.733 224.99C172.621 225.418 172.416 225.816 172.132 226.155C171.848 226.494 171.493 226.767 171.091 226.952C170.69 227.138 170.252 227.233 169.81 227.23Z" fill="#FFF0B0"/>
<path d="M0 188.92C10 176.92 26.09 169.55 41.73 170.11C65.59 170.97 79.81 182.5 84.65 201.26C85.83 205.85 83.96 214.07 79.07 217.04C74.18 220.01 66.19 220.04 56.21 215.41C39.86 207.87 13.93 215.85 0 227.26L0 188.92Z" fill="#FFE7E2"/>
<path d="M240 185.33C233.15 178.07 222.22 173.94 211.37 172C201.835 170.376 192.07 170.693 182.66 172.93C173.48 175.09 164.26 179.85 158.66 186.62C152.83 193.7 152.66 206.05 160.24 211.21C168.03 216.52 178.35 211.66 187.65 210.04C196.907 208.492 206.409 209.424 215.19 212.74C222.6 215.74 235.51 226.74 239.97 229.48L240 185.33Z" fill="#FFE7E2"/>
<path d="M147.39 72.3601L23.9099 69.0001C23.5098 68.9887 23.1159 68.8972 22.7516 68.7312C22.3874 68.5653 22.06 68.328 21.7888 68.0335C21.5176 67.7391 21.3081 67.3933 21.1726 67.0166C21.0371 66.6398 20.9784 66.2398 20.9999 65.8401L23.0999 19.6701C23.1348 18.9159 23.4527 18.2026 23.9902 17.6725C24.5277 17.1424 25.2454 16.8344 25.9999 16.8101L149.77 13.4201C150.182 13.41 150.591 13.4849 150.973 13.6401C151.355 13.7952 151.7 14.0273 151.988 14.3219C152.276 14.6165 152.501 14.9673 152.647 15.3523C152.794 15.7374 152.859 16.1485 152.84 16.5601L150.47 69.5001C150.434 70.2853 150.09 71.0248 149.515 71.5596C148.939 72.0945 148.176 72.3819 147.39 72.3601Z" fill="white"/>
<path d="M221.94 137.47L97.7501 143C97.3544 143.017 96.9592 142.956 96.5872 142.82C96.2153 142.684 95.874 142.476 95.583 142.207C95.292 141.938 95.0571 141.615 94.8918 141.255C94.7266 140.895 94.6342 140.506 94.6201 140.11L92.6201 87.65C92.6053 87.2469 92.6719 86.8449 92.8161 86.4682C92.9602 86.0914 93.1788 85.7476 93.4589 85.4572C93.7389 85.1669 94.0747 84.936 94.446 84.7785C94.8174 84.6209 95.2167 84.5398 95.6201 84.54L218.74 86.22C219.502 86.2183 220.236 86.5068 220.794 87.0269C221.351 87.5469 221.689 88.2595 221.74 89.02L224.74 134.32C224.781 135.108 224.51 135.88 223.986 136.47C223.462 137.059 222.727 137.419 221.94 137.47Z" fill="#C4F0E0"/>
<path d="M47.1501 31.4899C43.6872 31.0307 40.1699 31.7341 37.1501 33.4899C35.4401 34.4899 32.6901 36.9699 32.4701 42.6299C32.3501 45.8899 34.3001 49.5499 38.2201 52.0299C45.4001 56.5599 52.5401 54.3099 56.0901 49.4299C58.4901 46.1499 58.5501 41.0799 56.6601 37.4799C54.7701 33.8799 50.2201 31.9999 47.1501 31.4899Z" fill="#C4F0E0"/>
<path d="M80.44 131.64C77.708 131.433 74.966 131.879 72.44 132.94C71.3621 133.37 70.4262 134.094 69.7387 135.029C69.0511 135.964 68.6393 137.073 68.55 138.23C68.39 140.09 69.87 142.14 72.95 143.48C78.59 145.93 84.32 144.48 87.24 141.68C88.1482 140.811 88.7152 139.645 88.8381 138.394C88.961 137.143 88.6318 135.889 87.91 134.86C86.43 132.85 82.87 131.86 80.44 131.64Z" fill="#C1C9C5"/>
<path d="M118.82 101.45C115.077 100.938 111.27 101.688 108 103.58C106.15 104.67 103.18 107.34 103 113.45C102.86 116.97 105 120.93 109.2 123.6C116.95 128.49 124.67 126.06 128.51 120.8C131.09 117.25 131.15 111.8 129.12 107.89C127.09 103.98 122.13 102 118.82 101.45Z" fill="#A0B6EE"/>
<path d="M123.83 32.71C124.655 32.5533 125.508 32.6697 126.26 33.0414C127.013 33.4131 127.623 34.02 128 34.77C128.304 35.4853 128.336 36.2872 128.089 37.0242C127.842 37.7612 127.334 38.3822 126.66 38.77C125.72 39.29 124.66 39.55 123.66 40.03C122.594 40.5464 121.696 41.3542 121.07 42.36C119.86 44.36 119.93 46.83 120.14 49.06C120.158 49.5429 120.361 50.0004 120.708 50.3374C121.054 50.6745 121.517 50.8652 122 50.87C122.482 50.8674 122.943 50.6748 123.284 50.334C123.625 49.9933 123.817 49.5319 123.82 49.05C123.63 47.05 123.27 44.32 125.41 43.23C126.53 42.66 127.78 42.39 128.84 41.71C129.933 41.0158 130.788 40.0039 131.29 38.81C131.813 37.6125 131.987 36.2914 131.79 34.9996C131.594 33.7077 131.035 32.4978 130.18 31.51C129.268 30.5329 128.121 29.8064 126.848 29.4002C125.575 28.994 124.219 28.9216 122.91 29.19C122.675 29.2519 122.454 29.3601 122.261 29.5082C122.068 29.6564 121.906 29.8416 121.786 30.053C121.665 30.2644 121.588 30.4977 121.559 30.7393C121.529 30.9808 121.549 31.2258 121.615 31.4599C121.682 31.694 121.794 31.9125 121.946 32.1026C122.098 32.2927 122.286 32.4505 122.5 32.5669C122.714 32.6833 122.949 32.7559 123.191 32.7805C123.433 32.8051 123.677 32.7811 123.91 32.71H123.83Z" fill="#667770"/>
<path d="M120.3 54.1601L120.21 54.4201C120.14 54.655 120.14 54.9052 120.21 55.1401C120.218 55.3814 120.291 55.6161 120.42 55.8201C120.533 56.0258 120.694 56.2009 120.89 56.3301C121.067 56.4879 121.28 56.601 121.51 56.6601L122 56.7201C122.322 56.7211 122.639 56.6384 122.92 56.4801L123.29 56.1901C123.507 55.9639 123.668 55.6899 123.76 55.3901L123.85 55.1301C123.92 54.8918 123.92 54.6383 123.85 54.4001C123.84 54.1621 123.768 53.931 123.64 53.7301C123.53 53.5194 123.369 53.3404 123.17 53.2101C122.996 53.0497 122.782 52.9392 122.55 52.8901L122.06 52.8201C121.737 52.8225 121.42 52.9086 121.14 53.0701L120.77 53.3601C120.548 53.5825 120.386 53.8578 120.3 54.1601Z" fill="#667770"/>
<path d="M201.79 99.0699C200.854 104.624 200.226 110.226 199.91 115.85C199.91 116.327 200.1 116.785 200.437 117.123C200.775 117.46 201.233 117.65 201.71 117.65C202.187 117.65 202.645 117.46 202.983 117.123C203.32 116.785 203.51 116.327 203.51 115.85C203.8 110.538 204.388 105.246 205.27 99.9999C205.376 99.5431 205.304 99.0631 205.067 98.658C204.831 98.2528 204.45 97.953 204 97.8199C203.54 97.6963 203.05 97.758 202.635 97.9917C202.22 98.2254 201.913 98.6125 201.78 99.0699H201.79Z" fill="#28C99E"/>
<path d="M199.62 121.1C199.62 121.1 199.44 121.52 199.43 121.53L199.36 122.01C199.36 122.01 199.43 122.48 199.43 122.49C199.43 122.49 199.61 122.91 199.61 122.92L199.89 123.29L200.26 123.57L200.48 123.66L200.7 123.75C200.78 123.755 200.86 123.755 200.94 123.75H201.18H201.23L201.71 123.68L202.14 123.5L202.51 123.22L202.79 122.85C202.864 122.71 202.925 122.562 202.97 122.41C202.97 122.41 203.04 121.94 203.04 121.93L202.97 121.45C202.97 121.38 202.77 120.98 202.88 121.23C202.99 121.48 202.82 121.08 202.79 121.01C202.683 120.803 202.52 120.63 202.32 120.51C202.149 120.348 201.939 120.235 201.71 120.18C201.474 120.12 201.226 120.12 200.99 120.18C200.75 120.189 200.518 120.265 200.32 120.4L199.96 120.68C199.737 120.898 199.575 121.17 199.49 121.47L199.43 121.95C199.426 122.271 199.513 122.586 199.68 122.86L199.5 122.43L199.43 121.95L199.5 121.47L199.69 121.04L199.97 120.68L200.33 120.4L200.76 120.22L201.24 120.15H201.19L201.67 120.22L202.1 120.4L202.46 120.68L202.74 121.04L202.93 121.47L203 121.95L202.93 122.42L202.75 122.85C202.887 122.653 202.963 122.42 202.97 122.18C203.015 121.946 203.006 121.704 202.944 121.473C202.881 121.243 202.767 121.03 202.61 120.85C202.487 120.655 202.314 120.497 202.11 120.39L201.68 120.21C201.354 120.112 201.006 120.112 200.68 120.21L200.25 120.39C199.982 120.544 199.758 120.765 199.6 121.03L199.62 121.1Z" fill="#28C99E"/>
<path d="M31.4199 213.78C34.5463 213.084 37.7495 212.795 40.9499 212.92C44.3252 212.97 47.6824 213.423 50.9499 214.27C52.4573 214.694 53.9313 215.229 55.3599 215.87C57.1558 216.661 58.9954 217.349 60.8699 217.93C63.8644 218.897 66.9839 219.422 70.1299 219.49C74.3599 219.49 78.7299 218.32 81.7699 215.26C86.0699 210.93 87.0399 204.36 85.5699 198.63C84.6745 195.355 83.2526 192.248 81.3599 189.43C79.5621 186.586 77.4266 183.97 74.9999 181.64C74.4399 181.11 73.8599 180.64 73.2799 180.1C73.1245 179.972 72.9272 179.907 72.7263 179.917C72.5255 179.927 72.3355 180.011 72.1933 180.153C72.0511 180.295 71.9669 180.485 71.957 180.686C71.9472 180.887 72.0124 181.084 72.1399 181.24C76.5399 185.84 80.8499 190.96 83.1399 196.99C84.2941 199.869 84.7333 202.984 84.4199 206.07C84.1861 207.619 83.7068 209.121 82.9999 210.52C82.6482 211.26 82.2404 211.972 81.7799 212.65C81.6799 212.81 81.5699 212.96 81.4599 213.11C81.3499 213.26 81.4599 213.11 81.3599 213.24L81.1399 213.51C78.6299 216.51 74.8499 217.81 70.9399 217.95C68.0326 218.01 65.133 217.629 62.3399 216.82C60.5708 216.334 58.8313 215.746 57.1299 215.06C55.58 214.44 54.0699 213.75 52.4599 213.27C49.3409 212.371 46.1237 211.858 42.8799 211.74C39.6589 211.581 36.4303 211.799 33.2599 212.39C32.5499 212.53 31.8399 212.7 31.1299 212.89C31.0715 212.906 31.0169 212.934 30.9692 212.972C30.9215 213.009 30.8816 213.056 30.8519 213.109C30.8222 213.162 30.8032 213.22 30.796 213.28C30.7888 213.34 30.7935 213.401 30.8099 213.46C30.8264 213.518 30.8541 213.573 30.8917 213.621C30.9292 213.668 30.9757 213.708 31.0287 213.738C31.0816 213.768 31.1399 213.787 31.2001 213.794C31.2604 213.801 31.3215 213.796 31.3799 213.78H31.4199Z" fill="#343B38"/>
<path d="M168.12 177.49C166.679 178.005 165.311 178.704 164.05 179.57C162.752 180.4 161.527 181.34 160.39 182.38C158.114 184.445 156.269 186.94 154.96 189.72C153.715 192.384 153.122 195.306 153.23 198.245C153.337 201.184 154.143 204.054 155.58 206.62C157.078 209.186 159.301 211.253 161.97 212.56C164.905 213.938 168.118 214.622 171.36 214.56C174.744 214.46 178.103 213.943 181.36 213.02C184.621 212.174 187.926 211.506 191.26 211.02C194.122 210.627 197.014 210.493 199.9 210.62C202.9 210.77 205.9 211.33 208.9 211.56C209.74 211.63 210.58 211.74 211.42 211.8C211.87 211.8 211.88 211.21 211.52 211.07C210.026 210.449 208.48 209.96 206.9 209.61C205.4 209.3 203.9 209.07 202.38 208.9C199.63 208.6 196.858 208.56 194.1 208.78C191.03 209.043 187.98 209.507 184.97 210.17C181.72 210.87 178.52 211.89 175.22 212.34C169.45 213.12 162.82 212.34 158.73 207.77C155.17 203.77 154.25 197.77 155.73 192.77C157.36 187.15 161.73 182.64 166.66 179.71C167.29 179.34 167.93 178.97 168.55 178.58C169.17 178.19 168.75 177.32 168.11 177.58L168.12 177.49Z" fill="#343B38"/>
<path d="M92.25 87.6001C92.34 100.18 92.73 112.77 93.25 125.35C93.36 128.21 93.56 131.09 93.6 133.95C93.5212 135.961 93.6722 137.974 94.05 139.95C94.2052 140.939 94.6804 141.851 95.4028 142.544C96.1253 143.238 97.0551 143.675 98.05 143.79C99.5353 143.88 101.025 143.88 102.51 143.79L106.95 143.73C119.21 143.53 131.47 143.06 143.73 142.47C156.19 141.88 168.65 141.17 181.11 140.47C193.33 139.78 205.55 139.2 217.78 138.55C219.244 138.484 220.702 138.337 222.15 138.11C223.01 137.98 222.72 136.74 221.96 136.68C219.006 136.545 216.047 136.595 213.1 136.83C210.107 136.97 207.107 137.12 204.1 137.28C198.06 137.593 192.023 137.927 185.99 138.28C173.74 138.98 161.49 139.71 149.24 140.34C136.99 140.97 125.04 141.47 112.93 141.75C109.93 141.82 106.99 141.88 104.02 141.91L99.6 141.96C98.6 141.96 97.41 142.03 96.67 141.25C95.51 140.02 95.5 137.85 95.44 136.25C95.35 133.85 95.29 131.45 95.18 129.05C94.58 116.67 94.18 104.27 93.35 91.9101C93.25 90.4501 93.16 88.9801 93.06 87.5201C93.06 87.4087 93.0157 87.3019 92.937 87.2231C92.8582 87.1443 92.7514 87.1001 92.64 87.1001C92.5286 87.1001 92.4218 87.1443 92.343 87.2231C92.2642 87.3019 92.22 87.4087 92.22 87.5201L92.25 87.6001Z" fill="#343B38"/>
<path d="M22.77 20.5601C22.36 26.7001 22.34 32.8801 22.09 39.0301C21.84 45.1801 21.52 51.5301 21.16 57.7701C21.08 59.3101 20.99 60.8401 20.9 62.3801C20.7008 63.7517 20.6807 65.1433 20.84 66.5201C21.0741 67.6042 21.6832 68.571 22.56 69.2501C23.5078 69.9605 24.6659 70.3336 25.85 70.3101C31.25 70.4501 36.6467 70.6201 42.0401 70.8201C53.37 71.2401 64.7001 71.7101 76.0401 72.1401C87.5301 72.5801 99.04 72.9601 110.5 73.2001C116.09 73.3101 121.67 73.4101 127.26 73.4201C132.67 73.4201 138.11 73.4901 143.53 73.2401C144.817 73.1801 146.107 73.0901 147.4 72.9701C147.547 72.9511 147.682 72.8793 147.78 72.7679C147.878 72.6566 147.932 72.5134 147.932 72.3651C147.932 72.2168 147.878 72.0736 147.78 71.9622C147.682 71.8509 147.547 71.779 147.4 71.7601C142.15 71.5001 136.89 71.6701 131.63 71.6401C126.17 71.6401 120.7 71.5501 115.24 71.4601C103.93 71.2601 92.6301 70.9001 81.3301 70.4601C70.0301 70.0201 58.91 69.5901 47.69 69.1601C42.3 68.9501 36.9 68.7601 31.5 68.5601L27.55 68.4201C26.4242 68.5301 25.2878 68.3936 24.22 68.0201C23.8028 67.8051 23.4434 67.4931 23.1719 67.1102C22.9004 66.7274 22.7249 66.2849 22.66 65.8201C22.6234 65.2131 22.6401 64.6041 22.71 64.0001C22.76 63.1701 22.8 62.3401 22.85 61.5101C23.52 49.3301 24.02 37.1201 23.85 24.9201C23.85 23.4601 23.7901 22.0101 23.7001 20.5601C23.6838 20.451 23.629 20.3514 23.5455 20.2794C23.4619 20.2073 23.3553 20.1677 23.2451 20.1677C23.1348 20.1677 23.0282 20.2073 22.9446 20.2794C22.8611 20.3514 22.8063 20.451 22.7901 20.5601H22.77Z" fill="#343B38"/>
</svg>

<svg xmlns="http://www.w3.org/2000/svg" width="240" height="240" fill="none" xmlns:v="https://vecta.io/nano"><path d="M230 0H10C4.477 0 0 4.477 0 10v220a10 10 0 0 0 10 10h220a10 10 0 0 0 10-10V10a10 10 0 0 0-10-10z" fill="#c3d4f8"/><path d="M216.3 240H23.7l29.7-118.79a6 6 0 0 1 5.72-4.55l137-2.29L216.3 240z" fill="#7391ed"/><path d="M161.1 165.56h-101a3.01 3.01 0 0 1-1.301-.299c-.406-.196-.762-.481-1.042-.833s-.478-.764-.578-1.203a3 3 0 0 1 .001-1.335l7.7-33.61a3 3 0 0 1 2.9-2.28l91-2 5.29 38.22a2.99 2.99 0 0 1-.121 1.246c-.127.402-.338.772-.618 1.088a3.01 3.01 0 0 1-1.008.741c-.385.173-.801.263-1.223.265zm8.71 61.67l-124.4-1.11a3.01 3.01 0 0 1-2.33-1.14c-.278-.352-.474-.762-.573-1.2a3 3 0 0 1 .002-1.33L51.56 183 162 179.05c.71-.012 1.402.229 1.951.68s.921 1.081 1.049 1.78l7.78 42.17a3 3 0 0 1-.047 1.31c-.112.428-.317.826-.601 1.165a2.99 2.99 0 0 1-1.041.797 3 3 0 0 1-1.281.278z" fill="#fff0b0"/><path d="M0 188.92c10-12 26.09-19.37 41.73-18.81 23.86.86 38.08 12.39 42.92 31.15 1.18 4.59-.69 12.81-5.58 15.78s-12.88 3-22.86-1.63c-16.35-7.54-42.28.44-56.21 11.85v-38.34zm240-3.59c-6.85-7.26-17.78-11.39-28.63-13.33-9.535-1.624-19.3-1.307-28.71.93-9.18 2.16-18.4 6.92-24 13.69-5.83 7.08-6 19.43 1.58 24.59 7.79 5.31 18.11.45 27.41-1.17 9.257-1.548 18.759-.616 27.54 2.7 7.41 3 20.32 14 24.78 16.74l.03-44.15z" fill="#ffe7e2"/><path d="M147.39 72.36L23.91 69a3 3 0 0 1-2.121-.967A3 3 0 0 1 21 65.84l2.1-46.17a3 3 0 0 1 2.9-2.86l123.77-3.39a3 3 0 0 1 1.203.22c.382.155.727.387 1.015.682s.513.645.659 1.03a3 3 0 0 1 .193 1.208l-2.37 52.94a3 3 0 0 1-3.08 2.86z" fill="#fff"/><path d="M221.94 137.47L97.75 143a3.01 3.01 0 0 1-1.163-.18 2.99 2.99 0 0 1-1.004-.613 3 3 0 0 1-.963-2.097l-2-52.46a3 3 0 0 1 3-3.11l123.12 1.68a3 3 0 0 1 3 2.8l3 45.3c.041.788-.23 1.56-.754 2.15a3 3 0 0 1-2.046 1zM47.15 31.49a15.77 15.77 0 0 0-10 2c-1.71 1-4.46 3.48-4.68 9.14-.12 3.26 1.83 6.92 5.75 9.4 7.18 4.53 14.32 2.28 17.87-2.6 2.4-3.28 2.46-8.35.57-11.95s-6.44-5.48-9.51-5.99z" fill="#c4f0e0"/><path d="M80.44 131.64c-2.732-.207-5.474.239-8 1.3a6.21 6.21 0 0 0-3.89 5.29c-.16 1.86 1.32 3.91 4.4 5.25 5.64 2.45 11.37 1 14.29-1.8a5.26 5.26 0 0 0 .67-6.82c-1.48-2.01-5.04-3-7.47-3.22z" fill="#c1c9c5"/><path d="M118.82 101.45c-3.743-.512-7.55.238-10.82 2.13-1.85 1.09-4.82 3.76-5 9.87-.14 3.52 2 7.48 6.2 10.15 7.75 4.89 15.47 2.46 19.31-2.8 2.58-3.55 2.64-9 .61-12.91s-6.99-5.89-10.3-6.44z" fill="#a0b6ee"/><path d="M123.83 32.71a3.86 3.86 0 0 1 4.17 2.06 3.18 3.18 0 0 1-1.34 4c-.94.52-2 .78-3 1.26a6.27 6.27 0 0 0-2.59 2.33c-1.21 2-1.14 4.47-.93 6.7a1.88 1.88 0 0 0 1.86 1.81 1.83 1.83 0 0 0 1.82-1.82c-.19-2-.55-4.73 1.59-5.82 1.12-.57 2.37-.84 3.43-1.52a6.35 6.35 0 0 0 2.45-2.9c.523-1.198.697-2.519.5-3.81a6.92 6.92 0 0 0-1.61-3.49 7.8 7.8 0 0 0-7.27-2.32c-.235.062-.456.17-.649.318a1.82 1.82 0 0 0-.475.545c-.121.211-.198.445-.227.686a1.85 1.85 0 0 0 .056.721 1.84 1.84 0 0 0 .331.643 1.82 1.82 0 0 0 .554.464 1.85 1.85 0 0 0 .691.214 1.83 1.83 0 0 0 .719-.071h-.08zm-3.53 21.45l-.09.26a1.26 1.26 0 0 0 0 .72 1.36 1.36 0 0 0 .21.68 1.44 1.44 0 0 0 .47.51 1.49 1.49 0 0 0 .62.33l.49.06c.322.001.639-.082.92-.24l.37-.29c.217-.226.378-.5.47-.8l.09-.26c.07-.238.07-.492 0-.73a1.35 1.35 0 0 0-.21-.67 1.39 1.39 0 0 0-.47-.52 1.32 1.32 0 0 0-.62-.32l-.49-.07a1.87 1.87 0 0 0-.92.25l-.37.29a1.85 1.85 0 0 0-.47.8z" fill="#667770"/><path d="M201.79 99.07a152.43 152.43 0 0 0-1.88 16.78c0 .477.19.935.527 1.273a1.8 1.8 0 0 0 1.273.527c.477 0 .935-.19 1.273-.527a1.8 1.8 0 0 0 .527-1.273 142.43 142.43 0 0 1 1.76-15.85c.106-.457.034-.937-.203-1.342A1.84 1.84 0 0 0 204 97.82a1.82 1.82 0 0 0-2.22 1.25h.01zm-2.17 22.03l-.19.43-.07.48.07.48.18.43.28.37.37.28.22.09.22.09a1.92 1.92 0 0 0 .24 0h.24.05l.48-.07.43-.18.37-.28.28-.37c.074-.14.135-.288.18-.44l.07-.48-.07-.48c0-.07-.2-.47-.09-.22s-.06-.15-.09-.22c-.107-.207-.27-.38-.47-.5a1.34 1.34 0 0 0-.61-.33c-.236-.06-.484-.06-.72 0-.24.009-.472.085-.67.22l-.36.28c-.223.218-.385.49-.47.79l-.06.48c-.004.321.083.636.25.91l-.18-.43-.07-.48.07-.48.19-.43.28-.36.36-.28.43-.18.48-.07h-.05l.48.07.43.18.36.28.28.36.19.43.07.48-.07.47-.18.43c.137-.197.213-.43.22-.67a1.58 1.58 0 0 0-.026-.707c-.063-.23-.177-.443-.334-.623a1.31 1.31 0 0 0-.5-.46l-.43-.18c-.326-.098-.674-.098-1 0l-.43.18c-.268.154-.492.375-.65.64l.02.07z" fill="#28c99e"/><path d="M31.42 213.78a37.18 37.18 0 0 1 9.53-.86 42.35 42.35 0 0 1 10 1.35 31.82 31.82 0 0 1 4.41 1.6 51.45 51.45 0 0 0 5.51 2.06 32.41 32.41 0 0 0 9.26 1.56c4.23 0 8.6-1.17 11.64-4.23 4.3-4.33 5.27-10.9 3.8-16.63a31.31 31.31 0 0 0-4.21-9.2c-1.798-2.844-3.933-5.46-6.36-7.79-.56-.53-1.14-1-1.72-1.54-.155-.128-.353-.193-.554-.183a.81.81 0 0 0-.586 1.323c4.4 4.6 8.71 9.72 11 15.75a19.19 19.19 0 0 1 1.28 9.08 14.75 14.75 0 0 1-1.42 4.45 16.06 16.06 0 0 1-1.22 2.13c-.1.16-.21.31-.32.46s0 0-.1.13l-.22.27c-2.51 3-6.29 4.3-10.2 4.44a28.78 28.78 0 0 1-8.6-1.13 47.78 47.78 0 0 1-5.21-1.76c-1.55-.62-3.06-1.31-4.67-1.79-3.119-.899-6.336-1.412-9.58-1.53-3.221-.159-6.45.059-9.62.65a32.79 32.79 0 0 0-2.13.5.45.45 0 0 0-.161.082.44.44 0 0 0-.117.137.47.47 0 0 0-.056.171c-.007.06-.002.121.014.18a.47.47 0 0 0 .082.161.48.48 0 0 0 .137.117c.053.03.111.049.171.056s.121.002.18-.014h.04zm136.7-36.29a17.73 17.73 0 0 0-4.07 2.08 26.87 26.87 0 0 0-3.66 2.81 23.33 23.33 0 0 0-5.43 7.34c-1.245 2.664-1.838 5.586-1.73 8.525a18.52 18.52 0 0 0 2.35 8.375 15.08 15.08 0 0 0 6.39 5.94c2.935 1.378 6.148 2.062 9.39 2 3.384-.1 6.743-.617 10-1.54a92.64 92.64 0 0 1 9.9-2 48 48 0 0 1 8.64-.4c3 .15 6 .71 9 .94l2.52.24c.45 0 .46-.59.1-.73-1.494-.621-3.04-1.11-4.62-1.46-1.5-.31-3-.54-4.52-.71a44.05 44.05 0 0 0-8.28-.12c-3.07.263-6.12.727-9.13 1.39-3.25.7-6.45 1.72-9.75 2.17-5.77.78-12.4 0-16.49-4.57-3.56-4-4.48-10-3-15 1.63-5.62 6-10.13 10.93-13.06l1.89-1.13c.62-.39.2-1.26-.44-1l.01-.09zM92.25 87.6c.09 12.58.48 25.17 1 37.75l.35 8.6a26.44 26.44 0 0 0 .45 6 4.58 4.58 0 0 0 4 3.84 36.87 36.87 0 0 0 4.46 0l4.44-.06c12.26-.2 24.52-.67 36.78-1.26l37.38-2 36.67-1.92c1.464-.066 2.922-.213 4.37-.44.86-.13.57-1.37-.19-1.43-2.954-.135-5.913-.085-8.86.15l-9 .45-18.11 1-36.75 2.06-36.31 1.41-8.91.16-4.42.05c-1 0-2.19.07-2.93-.71-1.16-1.23-1.17-3.4-1.23-5l-.26-7.2-1.83-37.14-.29-4.39a.42.42 0 0 0-.84 0l.03.08zM22.77 20.56c-.41 6.14-.43 12.32-.68 18.47l-.93 18.74-.26 4.61a16.03 16.03 0 0 0-.06 4.14 4.71 4.71 0 0 0 1.72 2.73 5.31 5.31 0 0 0 3.29 1.06l16.19.51 34 1.32 34.46 1.06 16.76.22c5.41 0 10.85.07 16.27-.18 1.287-.06 2.577-.15 3.87-.27a.61.61 0 0 0 0-1.21c-5.25-.26-10.51-.09-15.77-.12-5.46 0-10.93-.09-16.39-.18l-33.91-1-33.64-1.3-16.19-.6-3.95-.14a7.79 7.79 0 0 1-3.33-.4 2.93 2.93 0 0 1-1.56-2.2 10.39 10.39 0 0 1 .05-1.82l.14-2.49c.67-12.18 1.17-24.39 1-36.59a70.28 70.28 0 0 0-.15-4.36.46.46 0 0 0-.91 0h-.02z" fill="#343b38"/></svg>
